img/ic_settings.svg

<svg width="24" height="24" viewBox="0 0 24 24" fill="none" xmlns="http://www.w3.org/2000/svg">
<path d="M19.43 12.98C19.47 12.66 19.5 12.34 19.5 12C19.5 11.66 19.47 11.34 19.43 11.02L21.54 9.37C21.73 9.22 21.78 8.95 21.66 8.73L19.66 5.27C19.57 5.11 19.4 5.02 19.22 5.02C19.16 5.02 19.1 5.03 19.05 5.05L16.56 6.05C16.04 5.65 15.48 5.32 14.87 5.07L14.49 2.42C14.46 2.18 14.25 2 14 2H9.99996C9.74996 2 9.53996 2.18 9.50996 2.42L9.12996 5.07C8.51996 5.32 7.95996 5.66 7.43996 6.05L4.94996 5.05C4.88996 5.03 4.82996 5.02 4.76996 5.02C4.59996 5.02 4.42996 5.11 4.33996 5.27L2.33996 8.73C2.20996 8.95 2.26996 9.22 2.45996 9.37L4.56996 11.02C4.52996 11.34 4.49996 11.67 4.49996 12C4.49996 12.33 4.52996 12.66 4.56996 12.98L2.45996 14.63C2.26996 14.78 2.21996 15.05 2.33996 15.27L4.33996 18.73C4.42996 18.89 4.59996 18.98 4.77996 18.98C4.83996 18.98 4.89996 18.97 4.94996 18.95L7.43996 17.95C7.95996 18.35 8.51996 18.68 9.12996 18.93L9.50996 21.58C9.53996 21.82 9.74996 22 9.99996 22H14C14.25 22 14.46 21.82 14.49 21.58L14.87 18.93C15.48 18.68 16.04 18.34 16.56 17.95L19.05 18.95C19.11 18.97 19.17 18.98 19.23 18.98C19.4 18.98 19.57 18.89 19.66 18.73L21.66 15.27C21.78 15.05 21.73 14.78 21.54 14.63L19.43 12.98V12.98ZM17.45 11.27C17.49 11.58 17.5 11.79 17.5 12C17.5 12.21 17.48 12.43 17.45 12.73L17.31 13.86L18.2 14.56L19.28 15.4L18.58 16.61L17.31 16.1L16.27 15.68L15.37 16.36C14.94 16.68 14.53 16.92 14.12 17.09L13.06 17.52L12.9 18.65L12.7 20H11.3L11.11 18.65L10.95 17.52L9.88996 17.09C9.45996 16.91 9.05996 16.68 8.65996 16.38L7.74996 15.68L6.68996 16.11L5.41996 16.62L4.71996 15.41L5.79996 14.57L6.68996 13.87L6.54996 12.74C6.51996 12.43 6.49996 12.2 6.49996 12C6.49996 11.8 6.51996 11.57 6.54996 11.27L6.68996 10.14L5.79996 9.44L4.71996 8.6L5.41996 7.39L6.68996 7.9L7.72996 8.32L8.62996 7.64C9.05996 7.32 9.46996 7.08 9.87996 6.91L10.94 6.48L11.1 5.35L11.3 4H12.69L12.88 5.35L13.04 6.48L14.1 6.91C14.53 7.09 14.93 7.32 15.33 7.62L16.24 8.32L17.3 7.89L18.57 7.38L19.27 8.59L18.2 9.44L17.31 10.14L17.45 11.27ZM12 8C9.78996 8 7.99996 9.79 7.99996 12C7.99996 14.21 9.78996 16 12 16C14.21 16 16 14.21 16 12C16 9.79 14.21 8 12 8ZM12 14C10.9 14 9.99996 13.1 9.99996 12C9.99996 10.9 10.9 10 12 10C13.1 10 14 10.9 14 12C14 13.1 13.1 14 12 14Z" fill="white"/>
</svg>

<svg width="24" height="24" fill="none" xmlns="http://www.w3.org/2000/svg"><path d="M19.43 12.98c.04-.32.07-.64.07-.98 0-.34-.03-.66-.07-.98l2.11-1.65c.19-.15.24-.42.12-.64l-2-3.46a.5.5 0 0 0-.61-.22l-2.49 1c-.52-.4-1.08-.73-1.69-.98l-.38-2.65A.488.488 0 0 0 14 2h-4c-.25 0-.46.18-.49.42l-.38 2.65c-.61.25-1.17.59-1.69.98l-2.49-1a.566.566 0 0 0-.18-.03c-.17 0-.34.09-.43.25l-2 3.46c-.13.22-.07.49.12.64l2.11 1.65c-.04.32-.07.65-.07.98 0 .33.03.66.07.98l-2.11 1.65c-.19.15-.24.42-.12.64l2 3.46a.5.5 0 0 0 .61.22l2.49-1c.52.4 1.08.73 1.69.98l.38 2.65c.03.24.24.42.49.42h4c.25 0 .46-.18.49-.42l.38-2.65c.61-.25 1.17-.59 1.69-.98l2.49 1c.06.02.12.03.18.03.17 0 .34-.09.43-.25l2-3.46c.12-.22.07-.49-.12-.64l-2.11-1.65zm-1.98-1.71c.04.31.05.52.05.73 0 .21-.02.43-.05.73l-.14 1.13.89.7 1.08.84-.7 1.21-1.27-.51-1.04-.42-.9.68c-.43.32-.84.56-1.25.73l-1.06.43-.16 1.13-.2 1.35h-1.4l-.19-1.35-.16-1.13-1.06-.43c-.43-.18-.83-.41-1.23-.71l-.91-.7-1.06.43-1.27.51-.7-1.21 1.08-.84.89-.7-.14-1.13c-.03-.31-.05-.54-.05-.74 0-.2.02-.43.05-.73l.14-1.13-.89-.7-1.08-.84.7-1.21 1.27.51 1.04.42.9-.68c.43-.32.84-.56 1.25-.73l1.06-.43.16-1.13.2-1.35h1.39l.19 1.35.16 1.13 1.06.43c.43.18.83.41 1.23.71l.91.7 1.06-.43 1.27-.51.7 1.21-1.07.85-.89.7.14 1.13zM12 8c-2.21 0-4 1.79-4 4s1.79 4 4 4 4-1.79 4-4-1.79-4-4-4zm0 6c-1.1 0-2-.9-2-2s.9-2 2-2 2 .9 2 2-.9 2-2 2z" fill="#fff"/></svg>
